markets/ICP.svg

<svg width="42" height="42" viewBox="0 0 42 42" fill="none" xmlns="http://www.w3.org/2000/svg">
<circle cx="21" cy="21" r="21" fill="white"/>
<g clip-path="url(#clip0_7698_9608)">
<path d="M29.3776 13C27.5088 13 25.4625 14.0185 23.3041 16.0274C22.2857 16.9711 21.3887 17.9989 20.7346 18.8118C20.7346 18.8118 21.7811 20.0171 22.9304 21.3159C23.5564 20.531 24.4441 19.4658 25.4812 18.5034C27.3967 16.7095 28.6487 16.345 29.3682 16.345C32.0592 16.345 34.2456 18.6062 34.2456 21.4C34.2456 24.1657 32.0592 26.4269 29.3682 26.4549C29.2374 26.4549 29.0879 26.4363 28.901 26.3989C29.6859 26.7633 30.5362 27.0249 31.3304 27.0249C36.2639 27.0249 37.2356 23.6145 37.2917 23.3715C37.4318 22.7455 37.5159 22.0914 37.5159 21.4187C37.5066 16.7749 33.8625 13 29.3776 13Z" fill="url(#paint0_linear_7698_9608)"/>
<path d="M12.1384 29.8C14.0071 29.8 16.0534 28.7816 18.2118 26.7727C19.2303 25.8289 20.1273 24.8011 20.7813 23.9882C20.7813 23.9882 19.7348 22.7829 18.5855 21.4841C17.9595 22.269 17.0719 23.3342 16.0347 24.2966C14.1192 26.0719 12.8578 26.455 12.1477 26.455C9.45673 26.455 7.2703 24.1938 7.2703 21.4C7.2703 18.6343 9.45673 16.3731 12.1477 16.3451C12.2785 16.3451 12.428 16.3638 12.6149 16.4011C11.83 16.0367 10.9798 15.7751 10.1855 15.7751C5.25206 15.7658 4.28031 19.1762 4.22425 19.4285C4.08409 20.0545 4 20.7086 4 21.3813C4 26.0252 7.64405 29.8 12.1384 29.8Z" fill="url(#paint1_linear_7698_9608)"/>
<path fill-rule="evenodd" clip-rule="evenodd" d="M15.8946 18.5782C15.3527 18.0549 12.7177 15.9152 10.1949 15.8405C5.69125 15.7284 4.37379 18.9987 4.25232 19.4191C5.12129 15.7564 8.33552 13.0187 12.1478 13C15.2592 13 18.4081 16.0554 20.7346 18.8118L20.744 18.8024C20.744 18.8024 21.7905 20.0078 22.9398 21.3066C22.9398 21.3066 24.2479 22.8483 25.6307 24.2031C26.1727 24.7264 28.7983 26.838 31.3211 26.9128C35.9462 27.0436 37.2263 23.5864 37.2917 23.3248C36.4414 27.0156 33.2178 29.7626 29.3869 29.7813C26.2755 29.7813 23.1266 26.7259 20.7907 23.9695C20.7907 23.9789 20.7814 23.9789 20.7814 23.9882C20.7814 23.9882 19.7349 22.7829 18.5856 21.4841C18.5949 21.4841 17.2868 19.933 15.8946 18.5782Z" fill="#29ABE2"/>
</g>
<defs>
<linearGradient id="paint0_linear_7698_9608" x1="25.0033" y1="14.3311" x2="36.5223" y2="25.945" gradientUnits="userSpaceOnUse">
<stop offset="0.21" stop-color="#F15A24"/>
<stop offset="0.6841" stop-color="#FBB03B"/>
</linearGradient>
<linearGradient id="paint1_linear_7698_9608" x1="16.5155" y1="28.4708" x2="4.99654" y2="16.857" gradientUnits="userSpaceOnUse">
<stop offset="0.21" stop-color="#ED1E79"/>
<stop offset="0.8929" stop-color="#522785"/>
</linearGradient>
<clipPath id="clip0_7698_9608">
<rect width="33.5253" height="16.8" fill="white" transform="translate(4 13)"/>
</clipPath>
</defs>
</svg>

<svg width="42" height="42" viewBox="0 0 42 42" fill="none" xmlns="http://www.w3.org/2000/svg"><circle cx="21" cy="21" r="21" fill="#fff"/><g clip-path="url(#clip0_7698_9608)"><path d="M29.378 13c-1.87 0-3.916 1.018-6.074 3.027a26.64 26.64 0 00-2.57 2.785s1.047 1.205 2.196 2.504c.626-.785 1.514-1.85 2.551-2.813 1.916-1.794 3.168-2.158 3.887-2.158 2.691 0 4.878 2.261 4.878 5.055 0 2.766-2.187 5.027-4.878 5.055-.13 0-.28-.019-.467-.056.785.364 1.635.626 2.43.626 4.933 0 5.905-3.41 5.96-3.653a8.95 8.95 0 00.225-1.953C37.506 16.775 33.862 13 29.378 13z" fill="url(#paint0_linear_7698_9608)"/><path d="M12.138 29.8c1.87 0 3.915-1.018 6.074-3.027a26.628 26.628 0 002.57-2.785s-1.047-1.205-2.197-2.504c-.626.785-1.513 1.85-2.55 2.813-1.916 1.775-3.177 2.158-3.887 2.158-2.691 0-4.878-2.261-4.878-5.055 0-2.766 2.187-5.027 4.878-5.055.13 0 .28.019.467.056-.785-.364-1.635-.626-2.43-.626-4.933-.01-5.905 3.401-5.96 3.653A8.934 8.934 0 004 21.381c0 4.644 3.644 8.419 8.138 8.419z" fill="url(#paint1_linear_7698_9608)"/><path fill-rule="evenodd" clip-rule="evenodd" d="M15.895 18.578c-.542-.523-3.177-2.663-5.7-2.737-4.504-.113-5.821 3.158-5.943 3.578.87-3.663 4.084-6.4 7.896-6.419 3.111 0 6.26 3.055 8.587 5.812l.009-.01s1.047 1.206 2.196 2.505c0 0 1.308 1.541 2.69 2.896.543.523 3.168 2.635 5.691 2.71 4.625.13 5.905-3.327 5.97-3.588-.85 3.69-4.073 6.438-7.904 6.456-3.111 0-6.26-3.055-8.596-5.811 0 .009-.01.009-.01.018 0 0-1.046-1.205-2.195-2.504.009 0-1.3-1.551-2.691-2.906z" fill="#29ABE2"/></g><defs><linearGradient id="paint0_linear_7698_9608" x1="25.003" y1="14.331" x2="36.522" y2="25.945" gradientUnits="userSpaceOnUse"><stop offset=".21" stop-color="#F15A24"/><stop offset=".684" stop-color="#FBB03B"/></linearGradient><linearGradient id="paint1_linear_7698_9608" x1="16.515" y1="28.471" x2="4.997" y2="16.857" gradientUnits="userSpaceOnUse"><stop offset=".21" stop-color="#ED1E79"/><stop offset=".893" stop-color="#522785"/></linearGradient><clipPath id="clip0_7698_9608"><path fill="#fff" transform="translate(4 13)" d="M0 0h33.525v16.8H0z"/></clipPath></defs></svg>
